priv/static/svgs/icons_new/shop-crypto-coin.svg

<svg width="32" height="32" viewBox="0 0 32 32" fill="none" xmlns="http://www.w3.org/2000/svg">
<path d="M16 28.5C22.9036 28.5 28.5 22.9036 28.5 16C28.5 9.09644 22.9036 3.5 16 3.5C9.09644 3.5 3.5 9.09644 3.5 16C3.5 22.9036 9.09644 28.5 16 28.5Z" stroke="black" stroke-linecap="round" stroke-linejoin="round"/>
<path d="M10.5 11H18C18.663 11 19.2989 11.2633 19.7678 11.7322C20.2366 12.201 20.5 12.837 20.5 13.5C20.5 14.163 20.2366 14.799 19.7678 15.2678C19.2989 15.7367 18.663 16 18 16M10.5 21H19C19.663 21 20.2989 20.7367 20.7678 20.2678C21.2366 19.799 21.5 19.163 21.5 18.5C21.5 17.837 21.2366 17.201 20.7678 16.7322C20.2989 16.2633 19.663 16 19 16H12.5M12.5 11V21M14.5 11V8M17.5 11V8M14.5 24V21M17.5 24V21" stroke="black" stroke-linecap="round" stroke-linejoin="round"/>
</svg>

<svg width="32" height="32" viewBox="0 0 32 32" fill="none" xmlns="http://www.w3.org/2000/svg">
  <symbol id="item" viewBox="0 0 32 32" stroke-width="1" fill="none">
    <path d="M16 28.5c6.904 0 12.5-5.596 12.5-12.5S22.904 3.5 16 3.5 3.5 9.096 3.5 16 9.096 28.5 16 28.5Z" stroke="currentColor" stroke-linecap="round" stroke-linejoin="round"/><path d="M10.5 11H18a2.5 2.5 0 1 1 0 5m-7.5 5H19a2.5 2.5 0 1 0 0-5h-6.5m0-5v10m2-10V8m3 3V8m-3 16v-3m3 3v-3" stroke="currentColor" stroke-linecap="round" stroke-linejoin="round"/>
  </symbol>
</svg>
